X:32
T:Weaver's
Z: id:dc-slide-33
M:6/8
L:1/8
K:D Major
g|fed B2d|A2d F2B|A2F D2F|E3 E2g|!
fed B2d|A2d F2B|A2F EFE|D3 D2:|!
e|fdf a3|baf a3|fdf a2f|g3 f2e|!
[1 fdf a3|baf a3|fdf a2f|d3 d2:|!
[2 faf efe|ded BdB|ABA GFE|D3 D2|]!

